icons/flag-24.svg

<svg xmlns="http://www.w3.org/2000/svg" width="24" height="24" viewBox="0 0 24 24"><path d="M19.99 14.37V4.92c0-.08-.02-.15-.05-.23 0-.02 0-.04-.01-.06-.02-.05-.05-.08-.08-.12s-.05-.08-.08-.11c-.01-.01-.04-.02-.05-.03a.8.8 0 0 0-.19-.13c-3.23-1.29-5.73-.34-8.15.59-2.2.84-4.28 1.62-6.88.65V3.75c0-.41-.34-.75-.75-.75S3 3.34 3 3.75v16.56c0 .41.34.75.75.75s.75-.34.75-.75V7.06c.85.26 1.65.37 2.41.37 1.82 0 3.43-.61 5-1.21 2.11-.81 4.12-1.55 6.58-.75v7.89c-2.79-.74-5.15.14-7.25.93-1.62.61-3.14 1.18-4.79 1.08-.38-.02-.77.29-.8.7s.29.77.7.8c.17.01.33.02.49.02 1.77 0 3.37-.61 4.92-1.19 2.31-.87 4.49-1.7 7.2-.61.06.02.12.02.18.03.03 0 .07.02.1.02.09 0 .18-.02.26-.05h.03a.75.75 0 0 0 .29-.24c.04-.05.08-.1.11-.17.02-.05.02-.1.03-.15 0-.04.03-.08.03-.13z"/></svg>

<svg width="24" height="24" viewBox="0 0 24 24" fill="none" xmlns="http://www.w3.org/2000/svg">
<path d="M19.99 14.37V4.92C19.99 4.84 19.97 4.77 19.94 4.69C19.94 4.67 19.94 4.65 19.93 4.63C19.91 4.58 19.88 4.55 19.85 4.51C19.82 4.47 19.8 4.43 19.77 4.4C19.76 4.39 19.73 4.38 19.72 4.37C19.66 4.32 19.6 4.27 19.53 4.24C16.3 2.95 13.8 3.9 11.38 4.83C9.18 5.67 7.1 6.45 4.5 5.48V3.75C4.5 3.34 4.16 3 3.75 3C3.34 3 3 3.34 3 3.75V20.31C3 20.72 3.34 21.06 3.75 21.06C4.16 21.06 4.5 20.72 4.5 20.31V7.06C5.35 7.32 6.15 7.43 6.91 7.43C8.73 7.43 10.34 6.82 11.91 6.22C14.02 5.41 16.03 4.67 18.49 5.47V13.36C15.7 12.62 13.34 13.5 11.24 14.29C9.62 14.9 8.1 15.47 6.45 15.37C6.07 15.35 5.68 15.66 5.65 16.07C5.62 16.48 5.94 16.84 6.35 16.87C6.52 16.88 6.68 16.89 6.84 16.89C8.61 16.89 10.21 16.28 11.76 15.7C14.07 14.83 16.25 14 18.96 15.09C19.02 15.11 19.08 15.11 19.14 15.12C19.17 15.12 19.21 15.14 19.24 15.14C19.33 15.14 19.42 15.12 19.5 15.09C19.5 15.09 19.52 15.09 19.53 15.09C19.65 15.04 19.74 14.95 19.82 14.85C19.86 14.8 19.9 14.75 19.93 14.68C19.95 14.63 19.95 14.58 19.96 14.53C19.96 14.49 19.99 14.45 19.99 14.4V14.37Z" fill="currentColor"/>
</svg>
